Adwaita++/mimetypes/scalable/application-x-kdenlive.svg

<svg height="256" viewBox="0 0 67.73 67.73" width="256" xmlns="http://www.w3.org/2000/svg" xmlns:xlink="http://www.w3.org/1999/xlink">
  <filter id="filter16020-3" color-interpolation-filters="sRGB" height="1.021433" width="1.027265" x="-.013633" y="-.010717">
    <feGaussianBlur stdDeviation="2.0004419"/>
  </filter>
  <g enable-background="new" stroke-width=".25">
    <g enable-background="new" stroke-width=".25" transform="matrix(.13297834 0 0 .13297834 .605824 28.61487660106)">
      <path d="m111.82842-178.55025h200l120.17158 119.671571.005 296.240039c.00031 17.728-14.44878 32.08839-32.17678 32.08839h-288c-17.72799 0-31.999992-14.272-31.999992-32v-384c0-17.728 14.272002-32 31.999992-32z" filter="url(#filter16020-3)" opacity=".4"/>
      <path d="m111.82842-179.67158h200l120.17158 119.67158.005 296.24003c.00031 17.728-14.44878 32.08839-32.17678 32.08839h-288c-17.727992 0-31.999992-14.272-31.999992-32v-384c0-17.728 14.272-32 31.999992-32z" fill="#f6f5f4"/>
      <path d="m311.82842-175.69243v88.000007c0 17.728 14.44211 31.693795 32.17011 31.693795l88.00147-.022223v-3.979149z" opacity=".25"/>
      <path d="m311.82842-179.67158v88.000008c0 17.728 14.44211 31.693795 32.17011 31.693795l88.00147-.022223z" fill="#deddda"/>
    </g>
    <g stroke-width="3.29045" transform="matrix(.13297834 0 0 .13297834 1.45848949372 27.97642285675)">
      <path d="m245.58724-46.130481.30594 195.860151h15.36281v-195.860151z" fill="#ccc"/>
      <path d="m214.24962-10.055742v11.7515955h15.66878v-11.7515955zm-15.66881 23.503179v11.751643h31.33759v-11.751643zm-31.3376 23.503238v11.751619h62.67519v-11.751619zm-15.66884 23.503215v11.751607h78.34403v-11.751607zm15.66884 23.503199v11.751619h62.67519v-11.751619zm31.3376 23.503211v11.75165h31.33759v-11.75165z" fill="#909090" fill-rule="evenodd"/>
      <path d="m283.01727 11.10433c-2.88511.155512-5.99175 2.69244-5.98453 5.503345l-.10774 82.992783c0 3.748192 5.51668 7.009722 8.67255 4.783022l59.45755-41.638221c3.17647-2.199215 3.16922-7.357953 0-9.566941l-59.34724-41.353726c-.79216-.551774-1.72631-.771596-2.68844-.720238z" fill="#666"/>
      <path d="m284.75929-49.227779h-31.33764-31.33762l15.66882 23.503203 15.6688 23.503239 15.66882-23.503239z" fill="#8e8e8e"/>
    </g>
  </g>
</svg>

<?xml version="1.0" encoding="UTF-8" standalone="no"?>
<svg
   xmlns:dc="http://purl.org/dc/elements/1.1/"
   xmlns:cc="http://creativecommons.org/ns#"
   xmlns:rdf="http://www.w3.org/1999/02/22-rdf-syntax-ns#"
   xmlns:svg="http://www.w3.org/2000/svg"
   xmlns="http://www.w3.org/2000/svg"
   xmlns:sodipodi="http://sodipodi.sourceforge.net/DTD/sodipodi-0.dtd"
   xmlns:inkscape="http://www.inkscape.org/namespaces/inkscape"
   width="256"
   height="256"
   version="1.1"
   viewBox="0 0 67.73 67.73"
   id="svg37"
   sodipodi:docname="x-content-ebook-reader.svg"
   inkscape:version="0.92.3 (2405546, 2018-03-11)">
  <metadata
     id="metadata41">
    <rdf:RDF>
      <cc:Work
         rdf:about="">
        <dc:format>image/svg+xml</dc:format>
        <dc:type
           rdf:resource="http://purl.org/dc/dcmitype/StillImage" />
        <dc:title></dc:title>
      </cc:Work>
    </rdf:RDF>
  </metadata>
  <sodipodi:namedview
     pagecolor="#ffffff"
     bordercolor="#666666"
     borderopacity="1"
     objecttolerance="10"
     gridtolerance="10"
     guidetolerance="10"
     inkscape:pageopacity="0"
     inkscape:pageshadow="2"
     inkscape:window-width="1920"
     inkscape:window-height="1009"
     id="namedview39"
     showgrid="false"
     inkscape:zoom="3.6304347"
     inkscape:cx="32.583328"
     inkscape:cy="125"
     inkscape:window-x="0"
     inkscape:window-y="34"
     inkscape:window-maximized="1"
     inkscape:current-layer="g17498" />
  <defs
     id="defs17">
    <linearGradient
       id="linearGradient4226"
       x1="529.655"
       x2="-35.31"
       y1="401.584"
       y2="119.093"
       gradientTransform="matrix(0 -.11988932 .11988589 0 .36278001 292.54831)"
       gradientUnits="userSpaceOnUse">
      <stop
         style="stop-color:#f2f2f2"
         offset="0"
         id="stop2" />
      <stop
         style="stop-color:#f9f9f9"
         offset="1"
         id="stop4" />
    </linearGradient>
    <linearGradient
       id="linearGradient4358"
       x1="88"
       x2="488"
       y1="88"
       y2="488"
       gradientUnits="userSpaceOnUse">
      <stop
         style="stop-color:#000000;stop-opacity:.58823532"
         offset="0"
         id="stop7" />
      <stop
         style="stop-color:#000000;stop-opacity:0"
         offset=".88"
         id="stop9" />
      <stop
         style="stop-color:#000000"
         offset="1"
         id="stop11" />
    </linearGradient>
    <filter
       id="filter4346"
       x="-.01"
       y="-.01"
       width="1.026"
       height="1.022"
       style="color-interpolation-filters:sRGB">
      <feGaussianBlur
         stdDeviation="2.12"
         id="feGaussianBlur14" />
    </filter>
    <filter
       inkscape:collect="always"
       style="color-interpolation-filters:sRGB"
       id="filter16020-3"
       x="-0.013632531"
       width="1.0272651"
       y="-0.010716653"
       height="1.0214334">
      <feGaussianBlur
         inkscape:collect="always"
         stdDeviation="2.0004419"
         id="feGaussianBlur16022-6" />
    </filter>
  </defs>
  <g
     transform="matrix(0.13297834,0,0,0.13297834,0.60582436,28.614877)"
     style="display:inline;stroke-width:0.25;enable-background:new"
     id="g17498">
    <g
       transform="translate(0,-3.4178172e-6)"
       style="display:inline;stroke-width:0.25;enable-background:new"
       id="g17498-7">
      <path
         style="display:inline;opacity:0.4;fill:#000000;fill-opacity:1;stroke:none;stroke-width:0.5;stroke-linejoin:round;stroke-miterlimit:4;stroke-dasharray:none;stroke-opacity:1;filter:url(#filter16020-3);enable-background:new"
         clip-path="none"
         d="m 111.82842,-178.55025 h 200 L 432,-58.878679 432.005,237.36136 c 3.1e-4,17.728 -14.44878,32.08839 -32.17678,32.08839 h -288 c -17.72799,0 -31.999992,-14.272 -31.999992,-32 v -384 c 0,-17.728 14.272002,-32 31.999992,-32 z"
         id="path6869-5"
         inkscape:connector-curvature="0"
         sodipodi:nodetypes="sccssssss" />
      <path
         sodipodi:nodetypes="sccssssss"
         inkscape:connector-curvature="0"
         id="rect2069-3"
         d="m 111.82842,-179.67158 h 200 L 432,-60 l 0.005,296.24003 c 3.1e-4,17.728 -14.44878,32.08839 -32.17678,32.08839 h -288 c -17.727992,0 -31.999992,-14.272 -31.999992,-32 v -384 c 0,-17.728 14.272,-32 31.999992,-32 z"
         clip-path="none"
         style="display:inline;opacity:1;fill:#f6f5f4;fill-opacity:1;stroke:none;stroke-width:0.5;stroke-linejoin:round;stroke-miterlimit:4;stroke-dasharray:none;stroke-opacity:1;enable-background:new" />
      <path
         inkscape:connector-curvature="0"
         style="display:inline;opacity:0.25;vector-effect:none;fill:#000000;fill-opacity:1;stroke:none;stroke-width:0.5;stroke-linecap:butt;stroke-linejoin:round;stroke-miterlimit:4;stroke-dasharray:none;stroke-dashoffset:0;stroke-opacity:1;enable-background:new"
         d="m 311.82842,-175.69243 v 88.000007 c 0,17.728 14.44211,31.693795 32.17011,31.693795 L 432,-56.020851 V -60 Z"
         id="path836"
         sodipodi:nodetypes="cscccc" />
      <path
         sodipodi:nodetypes="csccc"
         id="rect26812-5"
         d="m 311.82842,-179.67158 v 88.000008 c 0,17.728 14.44211,31.693795 32.17011,31.693795 L 432,-60 Z"
         style="display:inline;opacity:1;vector-effect:none;fill:#deddda;fill-opacity:1;stroke:none;stroke-width:0.5;stroke-linecap:butt;stroke-linejoin:round;stroke-miterlimit:4;stroke-dasharray:none;stroke-dashoffset:0;stroke-opacity:1;enable-background:new"
         inkscape:connector-curvature="0" />
    </g>
    <g
       id="g893"
       transform="translate(6.4120634,-4.8011885)">
      <path
         inkscape:connector-curvature="0"
         style="display:inline;opacity:1;fill:#cccccc;fill-opacity:1;stroke-width:3.2904501;enable-background:new"
         d="m 245.58724,-46.130481 0.30594,195.860151 h 15.36281 V -46.130481 Z"
         id="path8-3" />
      <path
         id="path1773-6"
         d="M 214.24962,-10.055742 V 1.6958535 H 229.9184 V -10.055742 Z M 198.58081,13.447437 V 25.19908 H 229.9184 V 13.447437 Z m -31.3376,23.503238 V 48.702294 H 229.9184 V 36.950675 Z M 151.57437,60.45389 V 72.205497 H 229.9184 V 60.45389 Z m 15.66884,23.503199 V 95.708708 H 229.9184 V 83.957089 Z m 31.3376,23.503211 v 11.75165 H 229.9184 V 107.4603 Z"
         style="display:inline;opacity:1;fill:#909090;fill-opacity:1;fill-rule:evenodd;stroke-width:3.2904501;enable-background:new"
         inkscape:connector-curvature="0" />
      <path
         id="path1775-7"
         d="m 283.01727,11.10433 c -2.88511,0.155512 -5.99175,2.69244 -5.98453,5.503345 L 276.925,99.600458 c 0,3.748192 5.51668,7.009722 8.67255,4.783022 L 345.0551,62.745259 c 3.17647,-2.199215 3.16922,-7.357953 0,-9.566941 L 285.70786,11.824592 c -0.79216,-0.551774 -1.72631,-0.771596 -2.68844,-0.720238 z"
         style="display:inline;opacity:1;fill:#666666;fill-opacity:1;stroke-width:3.2904501;enable-background:new"
         inkscape:connector-curvature="0" />
      <path
         id="path1777-5"
         d="m 284.75929,-49.227779 h -31.33764 -31.33762 l 15.66882,23.503203 15.6688,23.503239 15.66882,-23.503239 z"
         style="display:inline;opacity:1;fill:#8e8e8e;fill-opacity:1;stroke-width:3.2904501;enable-background:new"
         inkscape:connector-curvature="0" />
    </g>
  </g>
</svg>
